X:1
T:Title
%%score [ ( 1 2 3 4 ) ( 5 6 7 8 ) ]
L:1/8
Q:1/4=120
M:6/8
K:D
V:1 treble nm="Midi_74"
V:2 treble 
V:3 treble 
V:4 treble 
V:5 bass nm="Midi_74"
V:6 bass 
V:7 bass 
V:8 bass 
V:1
"^Alfred, Lord Tennyson" F2 F B3 | A2"^Sweet and low" A d3 | dcB (AA)^G | %3
w: Sweet and low,|sweet and low,|Wind of the west * ern|
w: Sleep and rest,|sleep and rest,|Fa- ther will come to thee|
"^Joseph Barnby""^(1836-96)" (B3 A3) | F3 B3 | A2 !courtesy!^F B3 | ecd (BB)c | (B3 A3) | %8
w: sea; *|Low, low,|breathe and blow,|Wind of the west * ern|sea, *|
w: soon; *|Rest, *|mo- ther's breast,|Fa- ther will come to thee|soon, *|
 AcB (AB)A | (A d) B A3 | (Ac)B (AB)A | (Ad)^G A3 | ddd d2 c | (B3 _B3) | A2 A A>!courtesy!=BA | %15
w: O- ver the roll * ing|wa * ters go,|Come from the dy * ing|moon * and blow,|Blow him a- gain to|me, *|While my lit- tle one,|
w: Fa- ther will come to his|babe in the nest,|Sil * ver sails * all|out of the West,|Un- der the sil- ver|moon, *|Sleep, my lit- tle one,|
 A2 A A>BA | d6- | d3 d z z :| %18
w: while my pret- ty one|sleeps.||
w: sleep, my pret- ty one,|sleep.||
V:2
 D2 D =F3 | !courtesy!^F2 F G3 | FFF (EE)E | (D3 C3) | x3 B2 B | x6 | x6 | x6 | GGG G2 G | %9
 (FF)^E F3 | (GG)G G2 G | (FF)^E F3 | FDF !courtesy!=E2 E | (D3 =F3) | !courtesy!^F2 F E>EE | %15
 D2 D G>GG | (F3 G2 E | F3- F) z z :| %18
V:3
 x6 | x6 | x6 | x6 | x3 =F2 F | x6 | x6 | x6 | x6 | x6 | x6 | x6 | x6 | x6 | x6 | x6 | x6 | x6 :| %18
w: ||||||||||||||||||
w: ||||||||||||||||||
w: ||||rest on||||||||||||||
V:4
 x6 | x6 | x6 | x6 | D3 =F3 | !courtesy!^F2 F ^G3 | AAA (AA)^G | (^G3 A3) | x6 | x6 | x6 | x6 | %12
 x6 | x6 | x6 | x6 | x6 | x6 :| %18
V:5
 A,2 A, ^G,3 | A,2 A, B,3 | A,ED (CC)B, | (^G,3 A,3) | A,3 ^G,3 | A,2 D E3 | EED (FF)E | (D3 C3) | %8
 CED (CD)C | (D D) D D3 | (CE)D (CD)C | (DD)D D3 | B,F,B, ^A,2 A, | (B,3 D3) | %14
"^This edition  Andrew Sims 2000" D2 D C>CC | (DA,)D C>CC | (=C3 B,2 _B, | A,3- A,) z z :| %18
V:6
 D,2 D, D,3 | D,2 D, D,3 | D,D,D, (E,E,)E, | (E,3 A,,3) | x3 ^G,2 G, | x6 | x6 | x6 | %8
 A,A,A, A,2 A, | (A,A,)^G, (A,D,F,) | (A,A,)A, A,2 A, | (A,A,)B, A,3 | B,,B,,D, F,2 F, | %13
 (G,3 ^G,3) | A,2 A, !courtesy!=G,>G,G, | F,2 =F, E,>E,_E, | D,6- | D,3 D, z z :| %18
V:7
 x6 | x6 | x6 | x6 | x3 D,2 D, | x6 | x6 | x6 | x6 | x6 | x6 | x6 | x6 | x6 | x6 | x6 | x6 | x6 :| %18
V:8
 x6 | x6 | x6 | x6 | D,3 D,3 | (D,F,)A, D3 | CA,F, (D,D,)E, | (E,3 A,,3) | x6 | x6 | x6 | x6 | x6 | %13
 x6 | x6 | x6 | x6 | x6 :| %18

